X: 49
M:2/4
L:1/16
K:A
vA,2CE D2FD | E2GB A2cA | BEcE dEcE | BdcB AGFE |
agae fece | .fkb2.g aece | gebe gbeg | fe^df .e2((3efg) |
agae fece | .fkb2.g aece | kf2kg2ka2 (ed) | cABG A2:|


